dist/images/svg/sprite/icon-viber.svg

<svg width="25" height="24" viewBox="0 0 25 24" fill="none" xmlns="http://www.w3.org/2000/svg">
<g opacity="0.6" clip-path="url(#clip0_22_1486)">
<path fill-rule="evenodd" clip-rule="evenodd" d="M19.1131 0H5.88691C2.9118 0 0.5 2.4118 0.5 5.38691V18.6131C0.5 21.5882 2.9118 24 5.88691 24H19.1131C22.0882 24 24.5 21.5882 24.5 18.6131V5.38691C24.5 2.4118 22.0882 0 19.1131 0ZM18.6475 8.54599C18.422 7.85745 18.0313 7.23457 17.5097 6.73175C16.988 6.22892 16.3512 5.86142 15.6548 5.66134C13.5844 5.26393 11.4572 5.26393 9.38672 5.66134C8.67843 5.84908 8.02762 6.20924 7.49237 6.70968C6.95712 7.21012 6.55407 7.83528 6.31918 8.52937C5.93592 10.2681 5.93592 12.0695 6.31918 13.8082C6.53661 14.4693 6.90533 15.0706 7.39601 15.5642C7.8867 16.0577 8.48579 16.43 9.14564 16.6513V18.0562C9.14589 18.1688 9.17977 18.2788 9.24295 18.3721C9.30612 18.4653 9.39571 18.5375 9.50022 18.5795C9.60473 18.6215 9.71939 18.6313 9.82951 18.6077C9.93964 18.5841 10.0402 18.5281 10.1183 18.4469L11.5398 16.9755H12.4626C13.5144 16.9747 14.5637 16.8745 15.5966 16.6762C16.293 16.4761 16.9298 16.1086 17.4515 15.6058C17.9731 15.103 18.3638 14.4801 18.5894 13.7916C18.9869 12.0677 19.0068 10.2782 18.6475 8.54599ZM17.5253 13.5339C17.3514 14.0107 17.0708 14.4414 16.7048 14.793C16.3388 15.1446 15.8972 15.4077 15.4137 15.5623C14.3181 15.7702 13.2032 15.8594 12.0885 15.8283C12.0793 15.8244 12.0694 15.8224 12.0594 15.8224C12.0494 15.8224 12.0395 15.8244 12.0303 15.8283L10.9828 16.9589L9.8772 18.0895C9.85864 18.1071 9.8354 18.1189 9.81027 18.1237C9.78513 18.1284 9.75916 18.1258 9.73547 18.1161C9.71179 18.1065 9.69138 18.0902 9.67671 18.0693C9.66204 18.0483 9.65372 18.0236 9.65274 17.998V15.6787C9.65129 15.6607 9.64402 15.6436 9.63202 15.6301C9.62002 15.6166 9.60395 15.6074 9.58624 15.6038C9.10283 15.4493 8.6612 15.1861 8.2952 14.8346C7.9292 14.483 7.64853 14.0523 7.47471 13.5754C7.12951 12.0036 7.12951 10.3755 7.47471 8.8037C7.64853 8.32688 7.9292 7.89618 8.2952 7.54458C8.6612 7.19299 9.10283 6.92984 9.58624 6.7753C11.5086 6.40781 13.4831 6.40781 15.4054 6.7753C15.8888 6.92984 16.3305 7.19299 16.6965 7.54458C17.0625 7.89618 17.3431 8.32688 17.517 8.8037C17.8652 10.3749 17.868 12.003 17.5253 13.5754V13.5339ZM14.7736 12.7607C14.9606 12.887 15.141 13.023 15.3139 13.168C15.388 13.2307 15.4383 13.3169 15.4564 13.4122C15.4746 13.5075 15.4595 13.6062 15.4137 13.6917C15.2532 14.0455 14.9818 14.3373 14.6406 14.523C14.5334 14.5695 14.422 14.6056 14.308 14.6311C14.2609 14.6154 14.2137 14.602 14.1669 14.5888L14.1669 14.5888C14.0901 14.5671 14.0146 14.5457 13.9423 14.5147C12.7442 14.0615 11.6662 13.339 10.7916 12.4032C10.3084 11.8452 9.90297 11.2244 9.58619 10.5577C9.43655 10.2418 9.30354 9.91757 9.17053 9.59336C9.13149 9.44526 9.13412 9.28927 9.17813 9.14257C9.22213 8.99588 9.30581 8.86419 9.41992 8.76205C9.5991 8.55471 9.82007 8.38756 10.0683 8.27157C10.1562 8.22684 10.2572 8.21483 10.3531 8.23767C10.4491 8.26052 10.5338 8.31673 10.5921 8.39627C10.9079 8.74307 11.1865 9.122 11.4234 9.52685C11.4974 9.64462 11.5231 9.78638 11.4953 9.92264C11.4674 10.0589 11.388 10.1792 11.2738 10.2584L11.0992 10.3914C11.0471 10.4306 11.0022 10.4784 10.9662 10.5327C10.9405 10.5844 10.9272 10.6413 10.9272 10.699C10.9272 10.7567 10.9405 10.8136 10.9662 10.8653C11.0929 11.2781 11.3069 11.6588 11.5938 11.9815C11.8807 12.3043 12.2337 12.5615 12.6288 12.7357C12.7604 12.8104 12.9098 12.8478 13.0611 12.8438C13.2274 12.8223 13.3245 12.6935 13.4216 12.5646C13.4749 12.4938 13.5283 12.423 13.5931 12.3699C13.6807 12.3045 13.7872 12.2691 13.8965 12.2691C14.0059 12.2691 14.1123 12.3045 14.2 12.3699C14.3544 12.4665 14.4988 12.5679 14.6449 12.6706C14.6876 12.7005 14.7304 12.7306 14.7736 12.7607ZM12.4126 7.88917H12.5041C13.2436 7.89053 13.9593 8.15061 14.5272 8.62434C15.0951 9.09807 15.4793 9.75557 15.6132 10.4829C15.6963 10.7821 15.6963 11.0482 15.6963 11.3142C15.7011 11.3401 15.7003 11.3668 15.6938 11.3924C15.6873 11.418 15.6754 11.4419 15.6588 11.4624C15.6422 11.483 15.6214 11.4997 15.5977 11.5114C15.5741 11.5231 15.5481 11.5296 15.5218 11.5303L15.5089 11.5303C15.3936 11.5306 15.3466 11.5307 15.3306 11.3142C15.3242 11.2288 15.3143 11.1434 15.3044 11.0584V11.0584V11.0584C15.2883 10.9201 15.2724 10.783 15.2724 10.6491C15.187 10.0758 14.9249 9.54341 14.5225 9.12616C14.1202 8.70891 13.5977 8.4276 13.0278 8.32145C12.916 8.28233 12.7704 8.27702 12.6517 8.27269C12.5938 8.27058 12.5422 8.26871 12.5041 8.26326C12.4898 8.26122 12.4747 8.25942 12.4593 8.25759C12.3494 8.2445 12.2214 8.22927 12.2214 8.10531C12.2179 8.07819 12.2202 8.05062 12.2282 8.02446C12.2362 7.9983 12.2497 7.97416 12.2678 7.95368C12.2859 7.93319 12.3082 7.91683 12.3332 7.9057C12.3582 7.89457 12.3853 7.88893 12.4126 7.88917ZM14.5078 10.9318C14.4999 10.9814 14.4999 11.0319 14.5078 11.0815C14.5191 11.1167 14.5413 11.1474 14.5711 11.1692C14.601 11.1911 14.6371 11.2028 14.6741 11.2028C14.7111 11.2028 14.7471 11.1911 14.777 11.1692C14.8069 11.1474 14.829 11.1167 14.8403 11.0815C14.843 11.0455 14.843 11.0094 14.8403 10.9734V10.7074V10.6076C14.8009 10.2681 14.6777 9.94374 14.4818 9.66367C14.2859 9.3836 14.0234 9.15663 13.718 9.00318C13.4007 8.84102 13.0517 8.75022 12.6955 8.73716C12.6723 8.73483 12.6489 8.7374 12.6268 8.74471C12.6047 8.75201 12.5843 8.76389 12.5671 8.77957C12.5498 8.79524 12.5361 8.81437 12.5267 8.83571C12.5173 8.85705 12.5125 8.88012 12.5126 8.90342C12.5091 8.92657 12.5105 8.9502 12.5167 8.97276C12.523 8.99533 12.5339 9.01633 12.5488 9.03438C12.5637 9.05243 12.5823 9.06712 12.6033 9.07751C12.6243 9.08789 12.6472 9.09372 12.6706 9.09463L12.9699 9.1445C13.1745 9.17643 13.3733 9.23804 13.5601 9.32739C13.8689 9.48014 14.1261 9.72002 14.3 10.0174C14.4451 10.2999 14.5166 10.6144 14.5078 10.9318ZM13.963 10.2446C14.0164 10.3757 14.0433 10.516 14.0422 10.6576C14.0499 10.7071 14.0499 10.7576 14.0422 10.8072C14.0324 10.8446 14.0092 10.8771 13.977 10.8986C13.9449 10.92 13.9059 10.9289 13.8676 10.9236C13.8418 10.9247 13.8161 10.9206 13.7919 10.9115C13.7677 10.9024 13.7457 10.8885 13.727 10.8706C13.7084 10.8527 13.6936 10.8313 13.6834 10.8075C13.6733 10.7838 13.6681 10.7582 13.6681 10.7324C13.6735 10.6493 13.6735 10.566 13.6681 10.483C13.6333 10.3209 13.5419 10.1765 13.4104 10.0756C13.3474 10.0307 13.2771 9.99693 13.2026 9.97587C13.1028 9.93431 13.0031 9.93431 12.9116 9.93431C12.8885 9.93034 12.8664 9.92175 12.8467 9.90905C12.827 9.89636 12.81 9.87982 12.7968 9.86042C12.7836 9.84102 12.7745 9.81916 12.7699 9.79615C12.7654 9.77314 12.7655 9.74944 12.7703 9.72648C12.7802 9.68179 12.8057 9.64211 12.8423 9.61466C12.8789 9.5872 12.9242 9.57378 12.9698 9.57684C13.1114 9.57684 13.2515 9.60485 13.3821 9.65926C13.5128 9.71368 13.6314 9.79341 13.7311 9.89387C13.8308 9.99434 13.9096 10.1135 13.963 10.2446Z" fill="white"/>
</g>
<defs>
<clipPath id="clip0_22_1486">
<rect width="24" height="24" fill="white" transform="translate(0.5)"/>
</clipPath>
</defs>
</svg>

<svg width="25" height="24" fill="none" xmlns="http://www.w3.org/2000/svg"><g opacity=".6" clip-path="url(#a)"><path fill-rule="evenodd" clip-rule="evenodd" d="M19.113 0H5.887A5.387 5.387 0 0 0 .5 5.387v13.226A5.387 5.387 0 0 0 5.887 24h13.226a5.387 5.387 0 0 0 5.387-5.387V5.387A5.387 5.387 0 0 0 19.113 0Zm-.465 8.546a4.44 4.44 0 0 0-2.993-2.885 16.626 16.626 0 0 0-6.268 0A4.44 4.44 0 0 0 6.319 8.53a12.262 12.262 0 0 0 0 5.28 4.473 4.473 0 0 0 2.827 2.842v1.405a.566.566 0 0 0 .972.39l1.422-1.47h.923a16.69 16.69 0 0 0 3.134-.3 4.44 4.44 0 0 0 2.992-2.884c.398-1.724.418-3.514.059-5.246Zm-1.123 4.988a3.326 3.326 0 0 1-2.111 2.028c-1.096.208-2.21.297-3.325.266a.075.075 0 0 0-.059 0l-1.047 1.13-1.106 1.132a.134.134 0 0 1-.2-.02.133.133 0 0 1-.024-.072v-2.32a.083.083 0 0 0-.067-.074 3.326 3.326 0 0 1-2.111-2.029 11.123 11.123 0 0 1 0-4.771 3.325 3.325 0 0 1 2.111-2.029 15.495 15.495 0 0 1 5.82 0 3.325 3.325 0 0 1 2.111 2.029c.348 1.57.351 3.199.008 4.771v-.041Zm-2.751-.773c.187.126.367.262.54.407a.423.423 0 0 1 .1.524c-.16.354-.432.645-.773.831a1.851 1.851 0 0 1-.333.108 3.133 3.133 0 0 0-.141-.042 1.822 1.822 0 0 1-.225-.074 8.362 8.362 0 0 1-3.15-2.112 8.185 8.185 0 0 1-1.206-1.845c-.15-.316-.282-.64-.415-.965a.831.831 0 0 1 .249-.83c.18-.208.4-.375.648-.491a.416.416 0 0 1 .524.124c.316.347.595.726.831 1.13a.54.54 0 0 1-.15.732l-.174.133a.573.573 0 0 0-.133.142.373.373 0 0 0 0 .332 3.008 3.008 0 0 0 1.663 1.87.831.831 0 0 0 .432.109c.166-.022.264-.15.36-.28.054-.07.107-.141.172-.194a.507.507 0 0 1 .607 0c.154.097.299.198.445.3l.129.09Zm-2.361-4.872h.091a3.167 3.167 0 0 1 3.11 2.594c.082.3.082.565.082.831a.183.183 0 0 1-.174.216h-.013c-.115 0-.162 0-.178-.216a6.258 6.258 0 0 0-.027-.256 3.58 3.58 0 0 1-.032-.409 2.785 2.785 0 0 0-2.244-2.328c-.112-.039-.258-.044-.376-.048-.058-.002-.11-.004-.148-.01a1.961 1.961 0 0 0-.045-.005c-.11-.013-.238-.029-.238-.153a.192.192 0 0 1 .192-.216Zm2.095 3.043a.476.476 0 0 0 0 .15.175.175 0 0 0 .332 0 .722.722 0 0 0 0-.109v-.366a2.061 2.061 0 0 0-1.122-1.604 2.444 2.444 0 0 0-1.023-.266.166.166 0 0 0-.182.166.167.167 0 0 0 .09.175c.021.01.044.016.068.017l.299.05c.204.031.403.093.59.182.309.153.566.393.74.69.145.283.217.597.208.915Zm-.545-.687c.053.13.08.271.08.413.007.05.007.1 0 .15a.158.158 0 0 1-.175.116.192.192 0 0 1-.2-.192 1.922 1.922 0 0 0 0-.249.698.698 0 0 0-.258-.407.674.674 0 0 0-.207-.1c-.1-.042-.2-.042-.291-.042a.174.174 0 0 1-.142-.208.191.191 0 0 1 .2-.15 1.072 1.072 0 0 1 .993.669Z" fill="#fff"/></g><defs><clipPath id="a"><path fill="#fff" transform="translate(.5)" d="M0 0h24v24H0z"/></clipPath></defs></svg>
